assets/awsiotreportedstate/original.svg

<svg height="48" viewBox="0 0 48 48" width="48" xmlns="http://www.w3.org/2000/svg"><path d="m23.992 34.683.858 1.43h-1.716zm2.624 3.43a1.001 1.001 0 0 0 .857-1.515l-2.624-4.374c-.36-.602-1.353-.602-1.714 0l-2.624 4.374a.999.999 0 0 0 .857 1.515zm-14.558-3.188c0 .655-.532 1.188-1.186 1.188a1.188 1.188 0 0 1 0-2.374c.654 0 1.186.532 1.186 1.186m2 0a3.19 3.19 0 0 0 -3.186-3.186 3.19 3.19 0 0 0 -3.187 3.186 3.19 3.19 0 0 0 3.187 3.188 3.19 3.19 0 0 0 3.186-3.188m5.686 4.686h8.496v-29.488h-8.496zm-1-31.49a1 1 0 0 0 -1 1v31.49a1 1 0 0 0 1 1h10.496a1 1 0 0 0 1-1v-31.491a1 1 0 0 0 -1-1zm-12.12 31.49h8.496v-17.242h-8.496zm-1-19.242a1 1 0 0 0 -1 1v19.241a1 1 0 0 0 1 1h10.496a1 1 0 0 0 1-1v-19.241a1 1 0 0 0 -1-1zm38.36 19.168a4.453 4.453 0 0 1 -4.448 4.448h-31.088a4.453 4.453 0 0 1 -4.448-4.448v-31.09a4.453 4.453 0 0 1 4.448-4.447h31.088a4.453 4.453 0 0 1 4.448 4.448zm-35.536-37.537a6.455 6.455 0 0 0 -6.448 6.448v31.089a6.455 6.455 0 0 0 6.448 6.448h31.088a6.455 6.455 0 0 0 6.448-6.448v-31.09a6.455 6.455 0 0 0 -6.448-6.447z" fill="#7aa116" fill-rule="evenodd"/></svg>

<svg xmlns="http://www.w3.org/2000/svg" width="48" height="48" viewBox="0 0 48 48"><path fill="#7aa116" fill-rule="evenodd" d="m23.992 34.683.858 1.43h-1.716zm2.624 3.43a1.001 1.001 0 0 0 .857-1.515l-2.624-4.374c-.36-.602-1.353-.602-1.714 0l-2.624 4.374a.999.999 0 0 0 .857 1.515zm-14.558-3.188c0 .655-.532 1.188-1.186 1.188a1.188 1.188 0 0 1 0-2.374c.654 0 1.186.532 1.186 1.186m2 0a3.19 3.19 0 0 0-3.186-3.186 3.19 3.19 0 0 0-3.187 3.186 3.19 3.19 0 0 0 3.187 3.188 3.19 3.19 0 0 0 3.186-3.188m5.686 4.686h8.496V10.123h-8.496zm-1-31.49a1 1 0 0 0-1 1v31.49a1 1 0 0 0 1 1H29.24a1 1 0 0 0 1-1V9.12a1 1 0 0 0-1-1zm-12.12 31.49h8.496V22.369H6.624zm-1-19.242a1 1 0 0 0-1 1V40.61a1 1 0 0 0 1 1H16.12a1 1 0 0 0 1-1V21.369a1 1 0 0 0-1-1zm38.36 19.168a4.453 4.453 0 0 1-4.448 4.448H8.448A4.453 4.453 0 0 1 4 39.537V8.447A4.453 4.453 0 0 1 8.448 4h31.088a4.453 4.453 0 0 1 4.448 4.448zM8.448 2A6.455 6.455 0 0 0 2 8.448v31.089a6.455 6.455 0 0 0 6.448 6.448h31.088a6.455 6.455 0 0 0 6.448-6.448V8.447A6.455 6.455 0 0 0 39.536 2z"/></svg>
